X: 912
T: New Christmass
R: reel
B: Robert Bremner "A Collection of Scots Reels or Country Dances" 1757 p.91 #2
S: http://imslp.org/wiki/A_Collection_of_Scots_Reels_or_Country_Dances_(Bremner,_Robert)
Z: 2013 John Chambers <jc:trillian.mit.edu>
M: C
L: 1/8
K: G
% - - - - - - - - - - - - - - - - - - - - - - - - -
V: 1
d |\
TB2GB dgdB | gg a/g/f/e/ aA-Ad |\
TB2GB dgdB | cA (d/c/B/A/) BGG :|
|: D |\
(B,/A,/G,) DG, EG,DG, | (B,/A,/G,) DG, EA,A,D |\
(B,/A,/G,) DG, EG,DG, | EGFA GG,G, :|
% - - - - - - - - - - - - - - - - - - - - - - - - -
V: 2 clef=bass middle=d
z |\
g2g2 g2g2 | g2g2 a2a2 |\
g2g2 g2g2 | c2d2 G2G :|
|: z |
G2G2 G2G2 | G2G2 A2A2 |\
G2G2 G2G2 | c2d2 G2G :|
% - - - - - - - - - - - - - - - - - - - - - - - - -

%%sep 1 1 500
%%sep 1 1 500
